X:1
T:Title
%%score { ( 1 3 ) | ( 2 4 5 ) }
L:1/8
M:4/4
K:Eb
V:1 treble nm="Grand Piano"
V:3 treble 
V:2 bass 
V:4 bass 
V:5 bass 
V:1
 z4 z2[Q:1/4=100] G2 | F2 E2 c2 [FB]2 | [B,FB]2 [B,DA]2 [B,EG]2 [B,FB]2 | %3
 [B,EG]2 [B,E]2 [A,DF]2 [B,EG]2 | [B,FA]2 [B,EG]2 [B,DF]2 [B,FB]2 | %5
 [B,EG]2 [CE=A]2 [DFB]2 [B,DB]2 | z4 z2 c2 | [DB]6 B2 | e2 d2 [Ge]2 [CEc]2 | %9
 [EGB]2 [DFA]2 [B,EG]2 [B,FB]2 | [Ee]2 d2 c2 B2 | A2 z2 z4 | G2 E2 c2 d2 | e2 A2 [EG]2 [DF]2 | %14
[M:7/4] [G,B,E]6 z2 z2 z4 |[M:4/4] [A,CE]4 [G,B,E]4 |] %16
V:2
 z4 z2 [E,B,E]2 | [F,A,D]2 [G,B,]2 [A,E]2 [E,G,]2 | D,2 B,,2 E,2 D,2 | E,2 G,2 F,2 E,2 | %4
 D,2 E,2 B,,2 D,2 | E,2 C,2 B,,2 G,2 | z4 F4 | [B,,F,]6[K:treble] [A,DF]2 | %8
 [G,B,E]2[K:bass] [F,A,F]2 [E,B,]2 A,2 | B,2 B,,2 E,2 D,2 | %10
 [C,G,]2[K:treble] [G,B,G]2 [A,E]2[K:bass] [E,G,E]2 | .[F,A,E]2 G,A, B,2 D,2 | %12
 [E,B,E]2 [G,B,]2[K:treble] [A,E]2 [F,A,F]2 | [G,B,E]2 [A,CF]2 z2[K:bass] z A, | %14
[M:7/4] E,6 z2 z2 z4 |[M:4/4] A,,4 E,4 |] %16
V:3
 x8 | x8 | x8 | x8 | x8 | x8 | [Ec]2 [Ee]2 d2 z E | x8 | x8 | x8 | x8 | z D [B,EG]2 [DF]2 [B,FB]2 | %12
 x8 | x8 |[M:7/4] x14 |[M:4/4] x8 |] %16
V:4
 x8 | x8 | x8 | x8 | x8 | x8 | [E,G,]2 [C,G,]2 [F,B,]2 [F,,=A,]2 | x6[K:treble] x2 | %8
 x2[K:bass] x6 | x8 | x2[K:treble] x4[K:bass] x2 | x8 | x4[K:treble] x4 | z4 B,4[K:bass] | %14
[M:7/4] x14 |[M:4/4] x8 |] %16
V:5
 x8 | x8 | x8 | x8 | x8 | x8 | x8 | x6[K:treble] x2 | x2[K:bass] x6 | x8 | %10
 x2[K:treble] x4[K:bass] x2 | x8 | x4[K:treble] x4 | z4 z2[K:bass] B,,2 |[M:7/4] x14 |[M:4/4] x8 |] %16

